X:44
T:Kelsterne Gardens
S:Lesley Dolman, via EF
M:4/4
L:1/4
K:Gm clef=treble
P:A
d[||:"Gm"Gg g/2f/2e/2d/2|"Adim"ec Ac | \
"F"Ff f/2e/2d/2c/2 | "Eb"e/2d/2c/2B/2 "D"d/2c/2B/2A/2 |
"Gm"Gg g/2f/2e/2d/2 | "Adim"ec Ac | \
"Gm"dB "D"D^F| "G"G3 d:|
P:B
[||:"Gm"gd' e'c'/2d'/2 | "Eb"e'/2d'/2c'/2b/2 "F"af' | \
"Eb" ge'2g | "D"^fd'2c'/2d'/2 |
"Eb" e'/2d'/2c'/2b/2 "D" a/2g/2^f/2a/2| "D"d^f "Gm"g d:|

